X: 31414
T: Paddy Ryan's Dream
R: reel
M: 4/4
K: Amixolydian
cA~A2 cABG|EGDB, =CEDB,|=CA,A,G, A,B,CD|~E2AE ^GBed|
cA~A2 cABG|EGDB, =CEDB,|=CA,A,G, A,B,CD|1 EA^GB A2ed:|2 EA^GB A2f^g||
|:agae ceAf|gfgd BFGB|Aaae ceAc|BGED CEAa|
agae ceAf|gfgd BFGB|cBcd edcB|1 Aa^gb aefg:|2 Aa^gb aeed||

